X:1
T:Peter Davidson Reel
C:Ronnie Cooper (Shetland)
M:4/4
L:1/8
S:Bob Diehl
R:reel
Z:Barney <G.Bahn-Koepke@t-online.de> irtrad-l 2001-01-14
K:D
c2||dD DE FD FA|df ec dB AF|BE EF GA Bc|df ed (3cde Ac|
dD DE FD FA|df ec dB AF|GA BG AG FD|ED CE D2 c2|
dD DE FD FA|df ec dB AF|BE EF GA Bc|df ed (3cde Ac|
dD DE FD FA|df ec dB AF|GA BG AG FD|ED CE D3z||
d2 fd fa ge|fd ec dB AF|BE EF GA Bc|df ed (3cde Ac|
d2 Ad fa ge|fd ec dB AF|GA BG AG FD|ED CE D2 Ac:||
